src/assets/outline/AirplaneSquare.svg

<svg width="24" height="24" viewBox="0 0 24 24"  xmlns="http://www.w3.org/2000/svg">
<path d="M14.46 19.8301C14.23 19.8301 14 19.7801 13.79 19.6701C13.74 19.6401 13.69 19.6101 13.65 19.5701L11.98 18.1501L10.34 19.5701C10.29 19.6101 10.24 19.6401 10.19 19.6701C9.80002 19.8601 9.36002 19.8801 8.97002 19.7101C8.57002 19.5401 8.27002 19.2101 8.13002 18.8001L7.81002 17.8401C7.64002 17.3401 7.79002 16.7101 8.16002 16.3301L9.83002 14.6901L9.82002 13.2401L6.81002 14.5301C6.31002 14.7401 5.79002 14.7201 5.39002 14.4501C5.00002 14.2001 4.77002 13.7301 4.77002 13.1901V12.2601C4.77002 11.4801 5.31002 10.6501 6.03002 10.3401L9.82002 8.71012V6.80012C9.82002 5.82012 10.47 4.76012 11.34 4.34012C11.77 4.13012 12.26 4.13012 12.69 4.34012C13.56 4.79012 14.21 5.85012 14.21 6.80012V8.71012L18 10.3401C18.72 10.6401 19.26 11.4701 19.26 12.2601V13.1901C19.26 13.7301 19.03 14.2001 18.62 14.4601C18.21 14.7201 17.7 14.7501 17.2 14.5401L14.2 13.2501V14.7201L15.83 16.3501C16.2 16.7201 16.35 17.3601 16.18 17.8601L15.86 18.8101C15.72 19.2201 15.42 19.5501 15.02 19.7101C14.84 19.7901 14.65 19.8301 14.46 19.8301ZM12 16.6701C12.34 16.6701 12.67 16.7801 12.94 16.9901L14.49 18.3101L14.76 17.3801L13.13 15.7601C12.87 15.5101 12.7 15.0901 12.7 14.7201V12.8701C12.7 12.4201 12.89 12.0301 13.23 11.8001C13.57 11.5701 14.01 11.5401 14.43 11.7201L17.75 13.1401L17.76 12.2601C17.76 12.0701 17.58 11.7901 17.41 11.7201L13.46 10.0201C13.03 9.84012 12.71 9.36012 12.71 8.87012V6.80012C12.71 6.41012 12.37 5.86012 12.02 5.68012C11.66 5.86012 11.32 6.40012 11.32 6.80012V8.87012C11.32 9.34012 11.01 9.83012 10.57 10.0201L6.63002 11.7201C6.46002 11.7901 6.27002 12.0801 6.27002 12.2601V13.1401L9.58002 11.7301C9.99002 11.5501 10.42 11.5701 10.77 11.8001C11.12 12.0301 11.32 12.4201 11.32 12.8801V14.7301C11.32 15.0901 11.15 15.5101 10.89 15.7701L9.21002 17.4201L9.53002 18.3001L11.04 17.0201C11.32 16.7901 11.66 16.6701 12 16.6701ZM14.05 8.64012L14.06 8.65012C14.06 8.64012 14.05 8.64012 14.05 8.64012Z" />
<path d="M15 22.75H9C3.57 22.75 1.25 20.43 1.25 15V9C1.25 3.57 3.57 1.25 9 1.25H15C20.43 1.25 22.75 3.57 22.75 9V15C22.75 20.43 20.43 22.75 15 22.75ZM9 2.75C4.39 2.75 2.75 4.39 2.75 9V15C2.75 19.61 4.39 21.25 9 21.25H15C19.61 21.25 21.25 19.61 21.25 15V9C21.25 4.39 19.61 2.75 15 2.75H9Z" />
</svg>

<?xml version="1.0" encoding="UTF-8"?>
<svg width="24" height="24" viewBox="0 0 24 24" xmlns="http://www.w3.org/2000/svg">
 <path d="m14.46 19.83c-0.23 0-0.46-0.05-0.67-0.16-0.05-0.03-0.1-0.06-0.14-0.1l-1.67-1.42-1.64 1.42c-0.05 0.04-0.1 0.07-0.15 0.1-0.38998 0.19-0.82998 0.21-1.22 0.04-0.4-0.17-0.7-0.5-0.84-0.91l-0.32-0.96c-0.17-0.5-0.02-1.13 0.35-1.51l1.67-1.64-0.01-1.45-3.01 1.29c-0.5 0.21-1.02 0.19-1.42-0.08-0.39-0.25-0.62-0.72-0.62-1.26v-0.93c0-0.78 0.54-1.61 1.26-1.92l3.79-1.63v-1.91c0-0.98 0.64998-2.04 1.52-2.46 0.43-0.21 0.92-0.21 1.35 0 0.87 0.45 1.52 1.51 1.52 2.46v1.91l3.79 1.63c0.72 0.3 1.26 1.13 1.26 1.92v0.93c0 0.54-0.23 1.01-0.64 1.27s-0.92 0.29-1.42 0.08l-3-1.29v1.47l1.63 1.63c0.37 0.37 0.52 1.01 0.35 1.51l-0.32 0.95c-0.14 0.41-0.44 0.74-0.84 0.9-0.18 0.08-0.37 0.12-0.56 0.12zm-2.46-3.16c0.34 0 0.67 0.11 0.94 0.32l1.55 1.32 0.27-0.93-1.63-1.62c-0.26-0.25-0.43-0.67-0.43-1.04v-1.85c0-0.45 0.19-0.84 0.53-1.07s0.78-0.26 1.2-0.08l3.32 1.42 0.01-0.88c0-0.19-0.18-0.47-0.35-0.54l-3.95-1.7c-0.43-0.17998-0.75-0.65998-0.75-1.15v-2.07c0-0.39-0.34-0.94-0.69-1.12-0.36 0.18-0.7 0.72-0.7 1.12v2.07c0 0.47-0.31 0.96-0.75 1.15l-3.94 1.7c-0.17 0.07-0.36 0.36-0.36 0.54v0.88l3.31-1.41c0.41-0.18 0.83998-0.16 1.19 0.07s0.55 0.62 0.55 1.08v1.85c0 0.36-0.17 0.78-0.43 1.04l-1.68 1.65 0.32 0.88 1.51-1.28c0.28-0.23 0.62-0.35 0.96-0.35zm2.05-8.03 0.01 0.01c0-0.01-0.01-0.01-0.01-0.01z"/>
 <path d="m15 22.75h-6c-5.43 0-7.75-2.32-7.75-7.75v-6c0-5.43 2.32-7.75 7.75-7.75h6c5.43 0 7.75 2.32 7.75 7.75v6c0 5.43-2.32 7.75-7.75 7.75zm-6-20c-4.61 0-6.25 1.64-6.25 6.25v6c0 4.61 1.64 6.25 6.25 6.25h6c4.61 0 6.25-1.64 6.25-6.25v-6c0-4.61-1.64-6.25-6.25-6.25h-6z"/>
</svg>
